X:50
T:March aux puces
C:Jean-Francois Blanger
Z:robin.beech@mcgill.ca
M:2/4
L:1/8
K:A
e/f/e cA | EA cA | BA GA | ED CD | A,E CE | AG AB | cB cd | fe df
e/f/e cA | EA cA | BA GA | ED CD | A,E CE | AG AB | cA GB |1 A2 B/c/d :|2 A2E/F/G |:
A2 ce | a2g2 | ba gf | e/f/e df | e/f/e  ce | Ae ce | f/=g/f df | ag fd |
e/f/e c'2 | b2c'2 | d'c' ba | gf df | e/f/e ce | Ae ce | BA GB | A2 E/F/G :|
"la dernier fois" A2ce | a2g2 | c'=c' ba | gf e^d | d2 cd | g/f/e _B=B | dc de | f/g/f =f=g |
e/f/e c'2 | b2c'2 | d'c' ba | gf df | e/f/e ce | A2 z2 | BA GB | A4 |]
